!!!!SEGMENT: Ren1002b-Missa_Benedictus_Dominus_Deus-Gloria.krn
!!!id: Ren1002b
!!!AGN: Mass; Gloria
!!!voices: 4
!!!COM: Renaldo
!!!OPR: Missa Benedictus Dominus Deus
!!!OTL: Gloria
**kern	**kern	**kern	**kern
*part4	*part3	*part2	*part1
*staff4	*staff3	*staff2	*staff1
*I"Bassus	*I"Tenor	*I"Altus	*I"Superius
*I'B	*I'T	*I'A	*I'S
*clefF4	*clefGv2	*clefG2	*clefG2
*k[b-]	*k[b-]	*k[b-]	*k[b-]
*F:	*F:	*F:	*F:
*M2/1	*M2/1	*M2/1	*M2/1
*met(C|)	*met(C|)	*met(C|)	*met(C|)
!!section: Et in terra
!!!OMD: Et in terra
=1	=1	=1	=1
1.G	1.G	1.d	1.g
2G	2G	2d	2g
=2	=2	=2	=2
1G	1B-y	1d	1g
1C	1c	1e	1g
=3	=3	=3	=3
1.G	1.d	1.g	1.b-y
2G	2d	2g	2b-y
=4	=4	=4	=4
1G	1d	1g	1b-y
1G	1B-y	2.d	1b-y
.	.	4e	.
=5	=5	=5	=5
1F	1c	1f	2.a
.	.	.	4g
1D	1F	4f	2a
.	.	4e	.
.	.	4d	[2b-y
.	.	4c	.
=6	=6	=6	=6
0E	0G	2B-y	4b-]
.	.	.	4a
.	.	1d	4g
.	.	.	4f
.	.	.	1g
.	.	2c#i	.
=7	=7	=7	=7
1.D	1A	1d	1f
.	1d	[1f	2r
[2BB-y	.	.	2b-y
=8	=8	=8	=8
4BB-]	2d	2f]	2b-y
4C	.	.	.
4D	2d	2f	2b-y
4E	.	.	.
2.F	1c	2f	2a
.	.	2F	[2cc
8EL	.	.	.
8DJ	.	.	.
=9	=9	=9	=9
1C	1e-i	2.G	4cc]
.	.	.	4b-y
.	.	.	4a
.	.	4A	4g
2r	2d	4B-y	2f
.	.	4c	.
2G	2B-y	4d	[2b-y
.	.	4e	.
=10	=10	=10	=10
1F	1c	1f	2b-]
.	.	.	2a
2.B-y	2.d	2r	1b-y
.	.	2g	.
4A	4c	.	.
=11	=11	=11	=11
2G	2B-y	2g	2r
4F	4A	2g	2dd
4E	4G	.	.
2D	2A	1f	2dd
2BB-y	2B-y	.	2dd
=12	=12	=12	=12
1C	2.G	1e	1cc
.	4A	.	.
1G	1B-y	2.d	1b-y
.	.	4e	.
=13	=13	=13	=13
2r	1r	2f	2a
2G	.	2.B-y	1b-y
2G	2r	.	.
.	.	4c	.
2G	2d	4d	4a
.	.	4e	4g
=14	=14	=14	=14
1F	2d	1f	1a
.	2d	.	.
1E	1c	2r	1r
.	.	2c	.
=15	=15	=15	=15
2D	1B-y	2d	2r
2G	.	2e	2g
2F	2A	[1f	2a
[2BB-y	[2d	.	[2b-y
=16	=16	=16	=16
2BB-]	2d]	2f]	2b-]
2C	4c	2e	4a
.	4B-y	.	4g
2D	2A	2d	2f
2E-i	2G	2c	[2g
=17	=17	=17	=17
1D	1A	1d	2g]
.	.	.	2f#i
2r	1G	2.d	1g
2B-y	.	.	.
.	.	4e	.
=18	=18	=18	=18
2B-y	0r	4f	0r
.	.	4d	.
2B-y	.	1g	.
1A	.	.	.
.	.	2f#i	.
=19	=19	=19	=19
1G	0B-y	2.g	2r
.	.	.	2b-y
.	.	4f	.
2r	.	2.d	2b-y
2G	.	.	2b-y
.	.	4e	.
=20	=20	=20	=20
2F	2c	1f	1a
2D	2d	.	.
1E	1G	2r	1g
.	.	2c	.
=21	=21	=21	=21
0D	0A	0d	1f
.	.	.	2r
.	.	.	2f
=22	=22	=22	=22
0r	0r	2e	2g
.	.	2c	2a
.	.	2d	2f
.	.	2e	2g
=23	=23	=23	=23
0r	0r	2f	2a
.	.	2d	1b-y
.	.	2.g	.
.	.	.	2g
.	.	4f	.
=24	=24	=24	=24
0r	0r	4e	2.cc
.	.	4d	.
.	.	2c	.
.	.	.	4b-y
.	.	2.f	4a
.	.	.	4g
.	.	.	2f
.	.	4e	.
=25	=25	=25	=25
0r	0r	4d	2.b-y
.	.	4c	.
.	.	2B-y	.
.	.	.	4a
.	.	2.e-i	2g
.	.	.	2f
.	.	4d	.
=26	=26	=26	=26
1r	1r	2c	2e
.	.	4B-y	1f
.	.	4A	.
1C	1c	1G	.
.	.	.	2e
=27	=27	=27	=27
2.D	2.A	1F	1f
4E	4G	.	.
2F	2A	1r	1r
2G	2B-y	.	.
=28	=28	=28	=28
2D	2A	0r	0r
1G	2G	.	.
.	1A	.	.
2F#i	.	.	.
=29	=29	=29	=29
1G	1G	2r	1r
.	.	2d	.
1r	1r	2d	2r
.	.	2d	2a
=30	=30	=30	=30
0r	0r	2f	2a
.	.	4e	2a
.	.	4d	.
.	.	2e	2.cc
.	.	2f	.
.	.	.	8b-yL
.	.	.	8aJ
=31	=31	=31	=31
0r	0r	1g	2b-y
.	.	.	2cc
.	.	2.G	1dd
.	.	4A	.
=32	=32	=32	=32
0r	0r	4B-y	2.d
.	.	4c	.
.	.	2.d	.
.	.	.	4e
.	.	.	4f
.	.	4e	4g
.	.	[2f	[2a
=33	=33	=33	=33
0r	0r	2f]	4a]
.	.	.	4b-y
.	.	4e	1cc
.	.	4d	.
.	.	2.c	.
.	.	.	4b-y
.	.	4d	4a
=34	=34	=34	=34
0r	1r	2e	2g
.	.	1f	2f
.	1c	.	1g
.	.	2e	.
=35	=35	=35	=35
1r	1d	2.f	1f
.	.	4e	.
1D	2.f	4d	1a
.	.	4c	.
.	.	2d	.
.	4e	.	.
=36	=36	=36	=36
1.G	2d	2.B-y	2.b-y
.	2c	.	.
.	.	4c	4a
.	2B-y	1d	2g
2D	2A	.	2f
=37	=37	=37	=37
2G	2G	2r	2e
2F	1A	2d	2d
1E	.	2d	1g
.	2G	2c	.
=38	=38	=38	=38
2D	2.A	2.d	2.f
2G	.	.	.
.	4B-y	4e	4g
2F	2c	1f	2a
2BB-y	2d	.	[2b-y
=39	=39	=39	=39
1E-i	1G	2B-y	4b-]
.	.	.	4a
.	.	2c	1g
1D	1A	1d	.
.	.	.	2f#i
=40	=40	=40	=40
1GG	1G	0d	1g
2r	1r	.	1f
2D	.	.	.
=41	=41	=41	=41
2BB-y	0r	1r	2d
2C	.	.	2e
1D	.	2r	1f
.	.	2d	.
=42	=42	=42	=42
1E-i	1r	2B-y	1g
.	.	2c	.
[1D	2r	[1d	1f
.	2A	.	.
=43	=43	=43	=43
1D]	2F	1d]	0f
.	2G	.	.
2r	1A	[1d	.
2D	.	.	.
=44	=44	=44	=44
2BB-y	1B-y	1d]	2d
2C	.	.	2e
1D	1A	2r	1f
.	.	2d	.
=45	=45	=45	=45
1E-i	1r	2B-y	1g
.	.	2c	.
[1D	2r	[1d	[1f
.	2A	.	.
=46	=46	=46	=46
1D]	2F	0d_	1f]
.	2G	.	.
2r	1A	.	1f
2D	.	.	.
=47	=47	=47	=47
2BB-y	1B-y	1d]	2d
2C	.	.	2e
2D	2A	2r	2f
2D	2F	2d	[2a
=48	=48	=48	=48
2E-i	1G	2B-y	2a]
2E-i	.	2c	1g
1D	1A	1d	.
.	.	.	2f#i
=49	=49	=49	=49
0G	1G	0B-y	0g
.	2r	.	.
.	[2d	.	.
=50	=50	=50	=50
2.D	2d]	1A	2r
.	2c	.	1a
4E	.	.	.
2.F	2A	1r	.
.	[2c	.	2g
4E	.	.	.
=51	=51	=51	=51
2.C	2c]	0r	2e
.	2B-y	.	1g
4D	.	.	.
2.E	2G	.	.
.	[2B-y	.	2f
4D	.	.	.
=52	=52	=52	=52
2.BB-y	2B-]	0r	2d
.	2A	.	2.f
4C	.	.	.
2D	1F	.	.
.	.	.	4g
2D	.	.	2a
=53	=53	=53	=53
2GG	1B-y	1r	2g
1G	.	.	1b-y
.	1r	2r	.
2F	.	[2d	2a
=54	=54	=54	=54
2D	0r	2d]	2f
1F	.	2c	1a
.	.	2A	.
2E	.	[2c	2g
=55	=55	=55	=55
2C	0r	2c]	2e
1E-i	.	2B-y	1g
.	.	2G	.
2D	.	[2d	2f
=56	=56	=56	=56
2BB-y	1r	2d]	2d
2C	.	2c	2e
1D	2r	2A	2f
.	2F	[2d	2a
=57	=57	=57	=57
1E-i	1G	2d]	1g
.	.	2c	.
1D	2A	2d	[1f
.	[2d	2A	.
=58	=58	=58	=58
2r	2d]	2B-y	2f]
1F	2c	2A	1a
.	2A	2c	.
2E	[2c	[2e-X	4g
.	.	.	4f
=59	=59	=59	=59
2.C	2c]	2e-]	2e
.	2B-y	2d	1g
4D	.	.	.
1E	1G	2.B-y	.
.	.	.	4f
.	.	4c	4e
=60	=60	=60	=60
1D	1A	1d	1f
[1GGl	[1Gl	[1dl	[1gl
=61	=61	=61	=61
00GG]	00G]	00d]	00g]
=62||	=62||	=62||	=62||
*M2/1	*M2/1	*M2/1	*M2/1
*met(C|)	*met(C|)	*met(C|)	*met(C|)
!!section: Qui tollis
!!!OMD: Qui tollis
0r	0r	0d	0a
=63	=63	=63	=63
0r	0r	1g	1b-y
.	.	1f	1cc
=64	=64	=64	=64
0D	0A	0d	0dd
=65	=65	=65	=65
1G	1B-y	2.d	0r
.	.	4e	.
1F	1c	[1f	.
=66	=66	=66	=66
0D	0d	1f]	2r
.	.	.	2a
.	.	2r	2a
.	.	2d	2a
=67	=67	=67	=67
1G	1B-y	2d	1b-y
.	.	2d	.
1r	[1A	1e	1cc
=68	=68	=68	=68
1D	2A]	1f	1dd
.	1B-y	.	.
1E	.	1g	1r
.	[2c	.	.
=69	=69	=69	=69
1F	2c]	2.f	1a
.	2d	.	.
.	.	4e	.
2G	2.B-y	2d	2b-y
4F	.	[2A	4a
4E	4c	.	4g
=70	=70	=70	=70
2D	2d	4A]	2f
.	.	4B-y	.
2C	2e-i	2c	2.cc
1G	2d	2.d	.
.	.	.	4b-y
.	2B-y	.	[2b-y
.	.	4e	.
=71	=71	=71	=71
1F	1c	1f	2b-]
.	.	.	2a
1BB-y	1B-y	1f	1b-y
=72	=72	=72	=72
2r	2r	2r	2r
1B-y	1d	1f	1b-y
2F	2c	2f	2a
=73	=73	=73	=73
1G	1B-y	0d	1g
1D	[1A	.	[1f
=74	=74	=74	=74
2r	1A]	2r	1f]
2D	.	2d	.
1G	1B-y	2.d	1g
.	.	4e	.
=75	=75	=75	=75
1F	1c	0f	1.a
1D	1d	.	.
.	.	.	[2b-y
=76	=76	=76	=76
1E-X	1B-y	0e-X	4b-]
.	.	.	4a
.	.	.	2.cc
1C	2.c	.	.
.	.	.	4b-y
.	.	.	4a
.	4B-y	.	4g
=77	=77	=77	=77
0D	2A	0d	2f
.	2G	.	1g
.	1A	.	.
.	.	.	2f#i
=78	=78	=78	=78
1GG	1G	1d	1g
[1G	1r	[1d	[1b-y
=79	=79	=79	=79
1G]	1r	1d]	1b-]
1D	[1d	[1f	[1a
=80	=80	=80	=80
0G	1d]	2f]	2a]
.	.	4e	4g
.	.	4d	4f
.	1B-y	1e	1g
=81	=81	=81	=81
1F	1c	1f	0a
2r	1c	1r	.
2F	.	.	.
=82	=82	=82	=82
2F	2c	0r	1.a
2D	2d	.	.
2F	2c	.	.
2G	2B-y	.	[2b-y
=83	=83	=83	=83
2E	2G	1r	2b-]
2E	2G	.	4a
.	.	.	4g
[1D	[1A	2r	2f
.	.	2f	2a
=84	=84	=84	=84
1D]	1A]	2f	2a
.	.	2d	2a
1r	2r	2f	2a
.	2G	2g	2b-y
=85	=85	=85	=85
0r	1A	2e	2cc
.	.	2e	2cc
.	[1B-y	1d	[1dd
=86	=86	=86	=86
1.G	2B-]	1.d	2dd]
.	2G	.	2.b-y
.	2B-y	.	.
.	.	.	4a
2C	2c	2e	[2g
=87	=87	=87	=87
1D	1A	1d	2g]
.	.	.	2f#i
1GG	1G	2r	1g
.	.	2d	.
=88	=88	=88	=88
0r	0r	2e	2r
.	.	2f	2a
.	.	2g	2b-y
.	.	2c	2cc
=89	=89	=89	=89
0r	0r	2d	2f
.	.	2e	2g
.	.	2f	2a
.	.	2B-y	2b-y
=90	=90	=90	=90
0r	0r	2c	2.a
.	.	2.d	.
.	.	.	4g
.	.	.	4f
.	.	4c	4e
.	.	4B-y	2d
.	.	4A	.
=91	=91	=91	=91
0r	0r	2G	2g
.	.	2.c	2e
.	.	.	2f
.	.	4B-y	.
.	.	4A	[2g
.	.	4G	.
=92	=92	=92	=92
1D	1d	1A	2g]
.	.	.	2f#i
2E	2G	1G	1g
2F	2A	.	.
=93	=93	=93	=93
2G	2B-y	0r	0r
2C	2c	.	.
2D	2F	.	.
2E	2G	.	.
=94	=94	=94	=94
2F	2A	0r	0r
2BB-y	2B-y	.	.
2C	2.A	.	.
[2D	.	.	.
.	4G	.	.
=95	=95	=95	=95
4D]	4F	0r	0r
4C	4E	.	.
4BB-y	2D	.	.
4AA	.	.	.
2GG	2G	.	.
[2C	2E	.	.
=96	=96	=96	=96
4C]	2F	0r	0r
4BB-y	.	.	.
4AA	1G	.	.
4GG	.	.	.
1AA	.	.	.
.	2F#i	.	.
=97	=97	=97	=97
1GG	1G	1d	1r
1D	1A	[1d	1f
=98	=98	=98	=98
1G	1B-y	2d]	1g
.	.	2e	.
[1F	2c	[1f	2.a
.	[2d	.	.
.	.	.	4g
=99	=99	=99	=99
2F]	4d]	2f]	2a
.	4c	.	.
2.G	4B-y	1.d	2.b-y
.	4A	.	.
.	1G	.	.
4F	.	.	4a
4E	.	.	4g
4D	.	.	4f
=100	=100	=100	=100
0C	1c	0e	2g
.	.	.	2.cc
.	2.c	.	.
.	.	.	4b-y
.	.	.	4a
.	4B-y	.	4g
=101	=101	=101	=101
2D	2A	2d	2f
2E	2G	2c	1g
1D	1A	1d	.
.	.	.	2f#i
=102	=102	=102	=102
[0GG	[0G	1d	1g
.	.	2r	1r
.	.	2g	.
=103	=103	=103	=103
0GG]	0G]	2g	2r
.	.	2g	2dd
.	.	2.d	2dd
.	.	.	2dd
.	.	4e	.
=104	=104	=104	=104
0r	0r	1.f	2.a
.	.	.	4b-y
.	.	.	[1cc
.	.	4e	.
.	.	4d	.
=105	=105	=105	=105
1r	1r	2.c	2cc]
.	.	.	4b-y
.	.	4d	4a
[1C	1c	2.e	[1g
.	.	4d	.
=106	=106	=106	=106
2C]	1e-i	2c	1g]
2C	.	2B-y	.
1D	[1d	[1A	1f
=107	=107	=107	=107
0E	2d]	2A]	1.g
.	4c#i	4G	.
.	4BnXi	4F	.
.	1c#i	1G	.
.	.	.	4f
.	.	.	4e
=108	=108	=108	=108
1D	1d	1A	1f
2r	1B-y	1G	2g
[2G	.	.	[2b-y
=109	=109	=109	=109
2G]	1r	0d	2b-]
2F	.	.	2a
2G	2r	.	1b-y
[2B-y	[2G	.	.
=110	=110	=110	=110
2B-]	2G]	1r	1r
2A	2F	.	.
2B-y	1G	[1d	2r
[2G	.	.	[2b-y
=111	=111	=111	=111
4G]	1r	1d]	4b-]
4F	.	.	4a
4E	.	.	4g
4D	.	.	4f
1E	1G	2B-y	1g
.	.	2c	.
=112	=112	=112	=112
1D	2A	1d	1f
.	2d	.	.
1r	2d	1r	2r
.	2d	.	2a
=113	=113	=113	=113
0r	1.f	0r	2a
.	.	.	2a
.	.	.	[1cc
.	4e	.	.
.	4d	.	.
=114	=114	=114	=114
0r	2.c	0r	2cc]
.	.	.	4b-y
.	4d	.	4a
.	[1e-i	.	2.g
.	.	.	4a
=115	=115	=115	=115
0r	2e-]	0r	1.b-y
.	4d	.	.
.	4c	.	.
.	2.B-y	.	.
.	.	.	4a
.	4c	.	4g
=116	=116	=116	=116
0r	1d	0r	2f
.	.	.	1b-y
.	2c	.	.
.	2A	.	[2a
=117	=117	=117	=117
1r	1B-y	1r	2a]
.	.	.	2g
2r	1A	1e	1a
2A	.	.	.
=118	=118	=118	=118
2A	0r	2f	0r
2A	.	2e	.
2.B-y	.	2.g	.
4A	.	4f	.
=119	=119	=119	=119
2G	0r	2e	0r
2F	.	2d	.
2E	.	2c	.
2D	.	2d	.
=120	=120	=120	=120
1F	0r	4A	0r
.	.	4B-y	.
.	.	4c	.
.	.	4d	.
1G	.	2e	.
.	.	2d	.
=121	=121	=121	=121
1A	0r	2f	0r
.	.	2.e	.
2G	.	.	.
.	.	4d	.
[2A	.	4c	.
.	.	4B-y	.
=122	=122	=122	=122
2A]	0r	2A	0r
4G	.	1d	.
4F	.	.	.
1E	.	.	.
.	.	2c#i	.
=123	=123	=123	=123
1D	2r	1d	2r
.	2F	.	2a
1D	2F	2d	2b-y
.	2F	2d	2a
=124	=124	=124	=124
1C	1G	2e	2.cc
.	.	2c	.
.	.	.	4b-y
2C	2.c	1e	2a
2C	.	.	2g
.	4B-y	.	.
=125	=125	=125	=125
2D	2A	1d	2f
2GG	2G	.	2g
1G	1B-y	2.d	4d
.	.	.	4e
.	.	.	4f
.	.	4e	4g
=126	=126	=126	=126
1F	1c	1f	4a
.	.	.	4b-y
.	.	.	4cc
.	.	.	4a
2G	2B-y	2d	2b-y
2F	2c	[2f	[2a
=127	=127	=127	=127
2D	2.d	2f]	4a]
.	.	.	4g
1G	.	2d	4f
.	4c	.	4e
.	2B-y	1d	2d
4F	4A	.	[2g
4E	4G	.	.
=128	=128	=128	=128
1D	1A	1d	2g]
.	.	.	2f#i
[1GGl	[1Gl	[1dl	[1gl
=129	=129	=129	=129
00GG]	00G]	00d]	00g]
==	==	==	==
*-	*-	*-	*-
!!!system-decoration: [*]
!!!RDF**kern: i = editorial accidental
!!!RDF**kern: l = terminal long
!!!ENC: Benjamin Ory
!!!END: 2025/2/27
!!!EED: Benjamin Ory
!!!EEV: 2025/02/27
!!!YEC: Copyright 2025 Benjamin Ory, All Rights Reserved
!!!ONB: Translated from MusicXML on 2025/02/27